X: 3256
T: TOP AND BOTTOM
%R: jig
B: James Kerr "Merry Melodies" v.3 p.28 #256
Z: 2016 John Chambers <jc:trillian.mit.edu>
M: 6/8
L: 1/8
K: G
|:\
g3 dBd | g3 dBd |\
[1 gfe dcB | edc BAG :|\
[2 bag fed | Ad^c d3 |]\
dcB cea |
cBA Bdg |\
edc BAG | FGE D3 |\
gaf gaf | gaf gaf |\
gdc BcA | GGG G3 |]

%%sep 1 1 500
%%sep 1 1 500

